X:=3
T:Basin Street
C:Spencer Williams
L:1/8
M:C
I:linebreak $
K:Bb
FF |:"Bb" DD"Cm" E2"C#o" =EF"D6" z2 |"Bb" DD"Cm" E2"C#o" =EF"D6" z2 |
"D6" BB"Dbo" _AG"Cm" FG"F7" z2 |"D6" BB"Dbo" _AG"Cm" FG"F7" z2 |$"Bb7" F B2 F"D6" B2 FF |
"Eb7" B B2 c"Eo" z4 |"Bb7" B2 _AG FD E_F ||1"F7" F D2 B,"Bb7" z2"F+" (3F=E_E :|2$
"F7" FB (3_dcB"Bb7" B2 F2 ||"Bb" D2 DD- D4 |"D7" D2 DD- D4 |"G7" D2 AD D3 D |$
"Dm" A A2 G"G7" G2 D2 |"C7" D D2 D- D4 |"F7" D F2 D- D2 F2 |"Bb" ccBB"Bbo" AAGG |$
"Cm" BBAA"F7" GG F2 |"Bb" D D2 D- D4 |"D7" A A2 ^F- F2 D2 |"G7" D A2 G- G4 |$
"Ab7" E E2 D"G7" z2 D2 |"C7" D A2 G G4 |"F7" z2 D2 FDCB, |"Bb" z8 |]



